!!!COM: Palestrina, Giovanni Perluigi da
!!!OPR: Nigra sum
!!!OTL: Credo
**kern	**kern	**kern	**kern	**kern
*Ibass	*Itenor	*Itenor	*Icalto	*Icant
!Bassus	!Tenor 2	!Tenor 1	!Altus	!Cantus
*clefF4	*clefGv2	*clefGv2	*clefG2	*clefG2
*k[b-]	*k[b-]	*k[b-]	*k[b-]	*k[b-]
*D:aeo	*D:aeo	*D:aeo	*D:aeo	*D:aeo
*M4/2	*M4/2	*M4/2	*M4/2	*M4/2
=1	=1	=1	=1	=1
0r	1r	0r	1g	1r
.	2r	.	2g	[1dd
.	2G	.	2g	.
=2	=2	=2	=2	=2
0r	2G	2r	2b-	1dd]
.	2G	2d	2b-	.
.	2B-	2d	2.f	1dd
.	2B-	2d	.	.
.	.	.	4g	.
=3	=3	=3	=3	=3
0r	2.F	2f	2.a	1.cc
.	.	2f	.	.
.	4G	.	8g	.
.	.	.	8f	.
.	4A	4c	2.e	.
.	4B-	4d	.	.
.	2c	4e	.	2g
.	.	4c	4f	.
=4	=4	=4	=4	=4
0r	2G	2d	2.g	2b-
.	2g	2e-	.	2cc
.	.	.	4a	.
.	2g	1d	2b-	1dd
.	2f#	.	2a	.
=5	=5	=5	=5	=5
1r	1g	1G	1b-	2r
.	.	.	.	2dd
[1d	2f	1r	1a	2dd
.	2a	.	.	2dd
=6	=6	=6	=6	=6
1d]	2a	0r	2r	1ff
.	2a	.	2a	.
1d	1f	.	2a	2dd
.	.	.	2a	[2ff
=7	=7	=7	=7	=7
1.c	[0g	0r	1cc	2ff]
.	.	.	.	4ee-
.	.	.	.	4dd
.	.	.	2g	2ee-
2G	.	.	[2b-	[2dd
=8	=8	=8	=8	=8
2B-	1g]	0r	4b-]	2dd]
.	.	.	4a	.
2c	.	.	1g	4cc
.	.	.	.	4b-
1d	1r	.	.	1a
.	.	.	2f#	.
=9	=9	=9	=9	=9
1G	0r	2.d	1g	1b-
.	.	4d	.	.
2.G	.	2d	2.g	2.b-
.	.	2d	.	.
4G	.	.	4g	4b-
=10	=10	=10	=10	=10
2G	2.d	1G	2g	2b-
2G	.	.	2g	2b-
.	4d	.	.	.
[1D	2d	2A	2f	2a
.	2d	2A	2a	2ff
=11	=11	=11	=11	=11
1D]	1A	0d	2f	2dd
.	.	.	1a	1ff
2F	1r	.	.	.
2G	.	.	4g	4ee
.	.	.	4f	4dd
=12	=12	=12	=12	=12
1A	1a	2r	1e	1cc#
.	.	2.a	.	.
2.D	2f	.	4d	1dd
.	.	4g	4e	.
.	[2a	2f	4f	.
4E	.	.	4g	.
=13	=13	=13	=13	=13
2F	2a]	2e	2a	0r
2G	4g	1d	2b-	.
.	4f	.	.	.
1A	2.e	.	1a	.
.	.	2c	.	.
.	4f	.	.	.
=14	=14	=14	=14	=14
1G	1g	2B-	2r	2r
.	.	1G	2b-	2dd
1r	1d	.	2g	2b-
.	.	2G	[2b-	[2dd
=15	=15	=15	=15	=15
0r	0r	2B-	2b-]	2dd]
.	.	2c	4a	4cc
.	.	.	4g	4b-
.	.	2d	2f#	2a
.	.	2e-	2g	2g
=16	=16	=16	=16	=16
1r	1r	1d	2g	2a
.	.	.	2f#	2a
2.G	2.d	1r	1g	[1b
4G	4d	.	.	.
=17	=17	=17	=17	=17
2G	2d	0r	2.g	1b]
2G	2d	.	.	.
.	.	.	4g	.
2c	2e	.	2g	1r
2A	2c	.	2a	.
=18	=18	=18	=18	=18
1G	2d	0r	2b-	2.dd
.	1g	.	2g	.
.	.	.	.	4dd
1d	.	.	2a	2dd
.	2f#	.	2b	2dd
=19	=19	=19	=19	=19
1c	0g	0r	1cc	2ee
.	.	.	.	2cc
1G	.	.	2.b-	2dd
.	.	.	.	2ee
.	.	.	8a	.
.	.	.	8g	.
=20	=20	=20	=20	=20
0D	0a	2.d	2f	2.ff
.	.	.	4d	.
.	.	4d	4e	4ee
.	.	2d	4f	4dd
.	.	.	4g	4cc
.	.	2d	4a	2dd
.	.	.	4f	.
=21	=21	=21	=21	=21
0r	0r	2e	2g	2.cc
.	.	2c	1a	.
.	.	.	.	8b-
.	.	.	.	8a
.	.	2d	.	1b-
.	.	2e	2g	.
=22	=22	=22	=22	=22
1r	2r	1f	1a	1a
.	2.d	.	.	.
2.G	.	[1g	1r	2.b
.	4d	.	.	.
.	2d	.	.	.
4G	.	.	.	4b
=23	=23	=23	=23	=23
2G	2e	2g]	0r	2b
2A	2c	4f	.	1cc
.	.	4e	.	.
2F	2d	2a	.	.
2G	2e	2g	.	2b-
=24	=24	=24	=24	=24
2A	4f	1f	2r	2a
.	4e	.	.	.
2.B-	4d	.	2.f	2dd
.	4c	.	.	.
.	2d	1r	.	2.b-
4A	.	.	4f	.
[2G	2B-	.	2g	.
.	.	.	.	4cc
=25	=25	=25	=25	=25
2G]	1A	2r	1a	0dd
2F#	.	2.d	.	.
1G	2r	.	1b	.
.	.	4d	.	.
.	[2G	2d	.	.
=26	=26	=26	=26	=26
2.C	2G]	2e	2.cc	0r
.	2A	2c	.	.
4C	.	.	4cc	.
2G	2.B-	2d	2b-	.
2G	.	2e	2b-	.
.	4c	.	.	.
=27	=27	=27	=27	=27
1D	1d	2.f	1a	2r
.	.	.	.	1dd
.	.	4f	.	.
1r	1A	1e	2r	.
.	.	.	[2a	2cc#
=28	=28	=28	=28	=28
0r	2r	1d	2a]	2dd
.	1d	.	2f	2ff
.	.	1r	1g	1ee
.	2c#	.	.	.
=29	=29	=29	=29	=29
0r	2d	0r	2b-	2dd
.	2f	.	2.a	4cc
.	.	.	.	4b-
.	1e	.	.	4cc
.	.	.	4g	4b-
.	.	.	[2g	4a
.	.	.	.	4g
=30	=30	=30	=30	=30
2r	2d	0r	2g]	[0a
1D	1d	.	4f	.
.	.	.	4e	.
.	.	.	2f	.
2C#	2e	.	2e	.
=31	=31	=31	=31	=31
2D	2f	2r	1d	1a]
2F	2F	1d	.	.
1E	1G	.	2r	1r
.	.	2c#	2g	.
=32	=32	=32	=32	=32
4D	1.A	1d	2f	2r
4E	.	.	.	.
4F	.	.	1a	1dd
4G	.	.	.	.
2.A	.	2f	.	.
.	2A	[2e	2a	2cc#
4G	.	.	.	.
=33	=33	=33	=33	=33
2F	1A	2e]	1a	2dd
2D	.	1d	.	2ff
1A	1r	.	[1a	1ee
.	.	2c#	.	.
=34	=34	=34	=34	=34
1D	1r	1d	2a]	4ff
.	.	.	.	4ee
.	.	.	2f	4dd
.	.	.	.	4cc
1r	2r	4G	1g	2b-
.	.	4A	.	.
.	2g	4B-	.	2b-
.	.	4c	.	.
=35	=35	=35	=35	=35
1r	2f	4d	0r	2a
.	.	4e	.	.
.	2d	4f	.	2dd
.	.	4g	.	.
2r	1f	1a	.	2cc
2d	.	.	.	2a
=36	=36	=36	=36	=36
2c	1e	1r	2r	1cc
2A	.	.	2a	.
2B-	[1d	2r	2f	1b-
2G	.	2g	2g	.
=37	=37	=37	=37	=37
1D	1d]	2f	1a	2a
.	.	2d	.	2dd
1r	2r	1f	[1a	2cc
.	2d	.	.	2a
=38	=38	=38	=38	=38
0r	2c	1e	1a]	1cc
.	2A	.	.	.
.	2B-	1d	2r	1b-
.	2G	.	2g	.
=39	=39	=39	=39	=39
2r	0d	1r	2f	2a
2G	.	.	2d	2b-
2F	.	2r	2.f	2a
2D	.	2B-	.	2f
.	.	.	8e	.
.	.	.	8d	.
=40	=40	=40	=40	=40
1F	1r	2A	2c	2a
.	.	2F	1d	2a
1E	2r	2G	.	1g
.	[2g	2G	2c#	.
=41	=41	=41	=41	=41
1D	2g]	2A	1d	2r
.	2f	2B-	.	1dd
1r	1e	1c	1r	.
.	.	.	.	2cc
=42	=42	=42	=42	=42
0r	2d	1G	2r	1b-
.	2d	.	1g	.
.	2c	1r	.	2a
.	2d	.	2f	2a
=43	=43	=43	=43	=43
2r	1G	0r	1b-	2g
1d	.	.	.	2f
.	2A	.	[1a	1e
2c	2e	.	.	.
=44	=44	=44	=44	=44
1B-	2f	2r	2a]	1d
.	2g	2d	2g	.
2A	1a	2d	2f	1r
2A	.	2c	[2e	.
=45	=45	=45	=45	=45
2G	1d	2B-	4e]	0r
.	.	.	4d	.
2F	.	2A	1d	.
1E	2r	1G	.	.
.	[2g	.	2c#	.
=46	=46	=46	=46	=46
[0D	2g]	2.A	2d	1r
.	2f#	.	1a	.
.	.	8B-	.	.
.	.	8c	.	.
.	1f#	1d	.	[1dd
.	.	.	2a	.
=47	=47	=47	=47	=47
1D]	1f#	0r	2a	2dd]
.	.	.	2a	2dd
1r	1g	.	1b-	2dd
.	.	.	.	2dd
=48	=48	=48	=48	=48
0r	1c	0r	2g	1ee-
.	.	.	1cc	.
.	[1g	.	.	1dd
.	.	.	2b-	.
=49	=49	=49	=49	=49
0r	2g]	0r	2g	1.dd
.	2f	.	2a	.
.	2d	.	2b-	.
.	2e	.	2g	2cc
=50	=50	=50	=50	=50
0r	2f	1r	2.f	2a
.	2d	.	.	2b-
.	.	.	4g	.
.	2.c	[1A	4a	2cc
.	.	.	4b-	.
.	.	.	[2cc	[2a
.	4d	.	.	.
=51	=51	=51	=51	=51
0r	2.e	2A]	4cc]	2a]
.	.	.	4b-	.
.	.	2A	4a	2.cc
.	4d	.	4g	.
.	2e	2A	4a	.
.	.	.	4g	4b-
.	[2f	2A	4f	4a
.	.	.	4e	4g
=52	=52	=52	=52	=52
0r	4f]	2B-	2.d	2f
.	4e	.	.	.
.	2d	2B-	.	2g
.	.	.	4e	.
.	2.c	2.A	2f	[1a
.	.	.	[2e	.
.	4d	4B-	.	.
=53	=53	=53	=53	=53
0r	2e	2c	2e]	1a]
.	2f	2d	1d	.
.	1e	1A	.	2r
.	.	.	2c#	[2a
=54	=54	=54	=54	=54
1.D	2.f	2r	1d	2a]
.	.	1d	.	2a
.	4g	.	.	.
.	2a	.	2.f	[1a
2D	2A	2d	.	.
.	.	.	4f	.
=55	=55	=55	=55	=55
2D	1r	2d	2f	2a]
2D	.	2d	2f	2b-
[1E-	2r	2.G	[1g	2cc
.	[2G	.	.	[2b-
.	.	4A	.	.
=56	=56	=56	=56	=56
1E-]	2G]	2B-	1g]	2b-]
.	2G	2c	.	4a
.	.	.	.	4g
2.D	2B-	1d	2r	4f
.	.	.	.	4g
.	2A	.	[2f	[2a
4E	.	.	.	.
=57	=57	=57	=57	=57
2F	2A	2c	2f]	2a]
2G	1d	2B-	2d	1g
1D	.	1A	2.a	.
.	2d	.	.	2f#
.	.	.	8g	.
.	.	.	8a	.
=58	=58	=58	=58	=58
0G	1d	2r	2b-	1g
.	.	2G	2g	.
.	1r	1g	1b-	2r
.	.	.	.	2g
=59	=59	=59	=59	=59
0r	1d	2g	2b-	1dd
.	.	2f#	2a	.
.	1g	2g	2b-	2dd
.	.	2e-	2g	2cc
=60	=60	=60	=60	=60
2r	2g	1d	1a	2.dd
2D	2f#	.	.	.
.	.	.	.	4cc
1d	2.g	1G	1r	2b-
.	.	.	.	2b-
.	4f	.	.	.
=61	=61	=61	=61	=61
2d	2e	1A	2r	1a
2c#	2e	.	2e	.
2.d	[1f	1r	1a	2r
.	.	.	.	2a
4c	.	.	.	.
=62	=62	=62	=62	=62
2B-	2f]	1r	2a	1dd
2B-	4e	.	2g	.
.	4d	.	.	.
1A	1e	2r	2a	2dd
.	.	2e	2a	2cc#
=63	=63	=63	=63	=63
1G	0r	1g	1b-	2dd
.	.	.	.	2dd
1r	.	2g	1a	4ee
.	.	.	.	4dd
.	.	2f	.	2ff
=64	=64	=64	=64	=64
1r	1G	2g	2.b-	4ee-
.	.	.	.	4dd
.	.	2g	.	2.dd
.	.	.	4a	.
1C	1c	1e-	1g	.
.	.	.	.	4cc
.	.	.	.	2cc
=65	=65	=65	=65	=65
1G	2c	1d	2r	2.dd
.	2B-	.	2d	.
.	.	.	.	4cc
2G	2G	1r	2e	2b-
2F	2A	.	2f	2a
=66	=66	=66	=66	=66
2G	2.B-	0r	4e-	0g
.	.	.	4d	.
2G	.	.	1d	.
.	4A	.	.	.
1E-	1G	.	.	.
.	.	.	2c	.
=67	=67	=67	=67	=67
1D	1A	1.f	0d	0r
[1B-	1r	.	.	.
.	.	2e-	.	.
=68	=68	=68	=68	=68
2B-]	1.G	2d	1.b-	0r
2A	.	2c	.	.
2G	.	2B-	.	.
2F	2A	[2c	2a	.
=69	=69	=69	=69	=69
2E-	2B-	4c]	2g	0r
.	.	4B-	.	.
2D	2B-	1B-	2f	.
1C	1c	.	1e-	.
.	.	2A	.	.
=70	=70	=70	=70	=70
1BB-	1F	0B-	0d	1.ff
[1BB-	[1f	.	.	.
.	.	.	.	2ee-
=71	=71	=71	=71	=71
2BB-]	2f]	1.f	1.d	2dd
2C	2e-	.	.	2cc
[1D	2d	.	.	2b-
.	2c	2e-	2e-	[2a
=72	=72	=72	=72	=72
0D]	1B-	2d	2f	2a]
.	.	2d	2g	1g
.	1A	1d	1a	.
.	.	.	.	2f#
=73	=73	=73	=73	=73
1G	1G	1d	1b	1g
1r	1r	1r	1r	1r
=74	=74	=74	=74	=74
0C	0g	0c	0cc	0ee-
=75	=75	=75	=75	=75
1G	1g	1.d	1b-	1dd
1G	1d	.	1g	1b-
.	.	2B-	.	.
=76	=76	=76	=76	=76
1F	1f	1A	2a	1cc
.	.	.	1cc	.
1BB-	1f	1B-	.	1dd
.	.	.	[2b-	.
=77	=77	=77	=77	=77
[0F	1f	1c	2b-]	0cc
.	.	.	4a	.
.	.	.	4g	.
.	2r	2r	1a	.
.	2f	2c	.	.
=78	=78	=78	=78	=78
1F]	1.a	1.f	2r	2r
.	.	.	2f	2cc
1r	.	.	[1a	[1ff
.	2f	2d	.	.
=79	=79	=79	=79	=79
0r	0f	1d	2a]	2ff]
.	.	.	2a	2dd
.	.	2.B-	2b-	1dd
.	.	.	[2b-	.
.	.	8c	.	.
.	.	8d	.	.
=80	=80	=80	=80	=80
0r	0g	0e-	2b-]	1b-
.	.	.	2a	.
.	.	.	1g	1cc
=81	=81	=81	=81	=81
2r	2a	1d	2f#	2dd
1D	1f#	.	1a	1dd
.	.	2r	.	.
2D	2f#	[2d	2a	2dd
=82	=82	=82	=82	=82
1G	1g	2d]	1b-	1dd
.	.	2d	.	.
1D	2f	1d	2a	1dd
.	[2a	.	[2f	.
=83	=83	=83	=83	=83
1F	4a]	1A	2f]	1cc
.	4g	.	.	.
.	4f	.	2a	.
.	4e	.	.	.
1G	2d	1r	4g	1b-
.	.	.	4f	.
.	[2e	.	4e	.
.	.	.	4d	.
=84	=84	=84	=84	=84
0A	2e]	1r	2c#	0a
.	1d	.	2d	.
.	.	2r	[1e	.
.	4c	[2e	.	.
.	4B	.	.	.
=85	=85	=85	=85	=85
1A	2c#	2e]	1e]	1ee
.	2c#	2.a	.	.
[1d	1d	.	1r	[1ff
.	.	4g	.	.
.	.	4f	.	.
.	.	4e	.	.
=86	=86	=86	=86	=86
2d]	0r	2d	1a	2ff]
2c	.	2e	.	2ee
2B-	.	1f	[1b-	2dd
2A	.	.	.	2cc
=87	=87	=87	=87	=87
0G	0r	2.g	2b-]	0b-
.	.	.	2a	.
.	.	4f	.	.
.	.	2e	2g	.
.	.	[2d	2f	.
=88	=88	=88	=88	=88
0A	1r	2d]	0e	0a
.	.	4c	.	.
.	.	4B	.	.
.	1e	1c#	.	.
=89	=89	=89	=89	=89
2.D	1.f	[0d	1r	0a
4E	.	.	.	.
1F	.	.	1a	.
.	2e	.	.	.
=90	=90	=90	=90	=90
0G	2d	1d_	2b-	0dd
.	2c	.	2a	.
.	1B-	1d_	2g	.
.	.	.	2g	.
=91	=91	=91	=91	=91
0D	0A	0d]	0f#	0dd
*	*	*	*	*-
!! Crucifixus
*Itenor	*Itenor	*Icalto	*Icant
!Tenor 2	!Tenor 1	!Altus	!Cantus
*clefGv2	*clefGv2	*clefG2	*clefG2
*k[b-]	*k[b-]	*k[b-]	*k[b-]
*D:aeo	*D:aeo	*D:aeo	*D:aeo
*M4/2	*M4/2	*M4/2	*M4/2
=92	=92	=92	=92
0r	0d	0r	0r
=93	=93	=93	=93
0r	1d	1r	0r
.	[1c	[1g	.
=94	=94	=94	=94
0r	2c]	1g]	0r
.	2G	.	.
.	2B-	1g	.
.	2c	.	.
=95	=95	=95	=95
0r	1d	1.f	0dd
.	[1B-	.	.
.	.	2d	.
=96	=96	=96	=96
0r	1B-]	2f	1dd
.	.	2g	.
.	2.f	1a	[1cc
.	4c	.	.
=97	=97	=97	=97
0r	0e-	2g	2cc]
.	.	1b-	2g
.	.	.	2b-
.	.	4a	2cc
.	.	4g	.
=98	=98	=98	=98
1r	1d	2b-	2dd
.	.	2.a	2dd
[1d	1G	.	1b-
.	.	4g	.
.	.	[2g	.
=99	=99	=99	=99
1d]	0r	2g]	2a
.	.	4f	4dd
.	.	4e	4cc
1d	.	4f	4dd
.	.	4g	4ee
.	.	4a	[2ff
.	.	4b	.
=100	=100	=100	=100
1.c	0g	2.cc	2ff]
.	.	.	4ee
.	.	4b-	4dd
.	.	4g	2ee
.	.	4a	.
2G	.	[2b-	4dd
.	.	.	4cc
=101	=101	=101	=101
2B-	1g	2b-]	2dd
2c	.	4a	2ee
.	.	4g	.
2d	1f	2b-	2dd
2d	.	[2a	2ff
=102	=102	=102	=102
1B-	1d	2a]	2ff
.	.	2g	4ee
.	.	.	4dd
[1A	1e	1a	1cc#
=103	=103	=103	=103
1A]	2e	2r	1cc#
.	2e	2a	.
1d	2f	2a	1r
.	2d	2f	.
=104	=104	=104	=104
2d	2f	2a	1r
2G	4e	4g	.
.	4d	4f	.
2A	2c#	2e	2r
2a	2c#	2e	2ee
=105	=105	=105	=105
2a	1.d	1d	2ff
2f	.	.	2dd
2a	.	1d	2ff
4g	2G	.	4ee
4f	.	.	4dd
=106	=106	=106	=106
2e	1A	2r	2cc#
2e	.	1a	2cc#
1d	1B-	.	2.dd
.	.	2g	.
.	.	.	4b-
=107	=107	=107	=107
0a	1A	2f	4cc
.	.	.	4b-
.	.	2e	4a
.	.	.	4g
.	2r	2d	2f
.	[2a	2c	2e
=108	=108	=108	=108
2r	2a]	1B-	1d
1d	2g	.	.
.	2f	1A	1r
2c	2e	.	.
=109	=109	=109	=109
2B-	2d	1f	1r
2A	2c	.	.
2G	1d	1g	2r
2B-	.	.	[2dd
=110	=110	=110	=110
1A	2f	1a	2dd]
.	2e	.	2cc
2B-	4d	1f	2b-
.	4e	.	.
2F	4f	.	2a
.	4d	.	.
=111	=111	=111	=111
1G	2e	2b-	2g
.	1d	2b-	2f
1A	.	1a	1e
.	2c#	.	.
=112	=112	=112	=112
1d	1d	2r	2r
.	.	2f	2a
1r	1r	2a	2cc
.	.	2b-	2dd
=113	=113	=113	=113
0r	0r	2g	2ee
.	.	2a	2ff
.	.	2.b-	2.dd
.	.	4b-	4dd
=114	=114	=114	=114
2r	0r	2a	2cc
2B-	.	2.b-	2.dd
2d	.	.	.
.	.	4a	4cc
2e-	.	[2g	2b-
=115	=115	=115	=115
2c	0r	2g]	1a
2d	.	2f#	.
2.e-	.	2g	4g
.	.	.	4a
.	.	2g	4b-
4e-	.	.	4cc
=116	=116	=116	=116
2d	1r	2f	2.dd
4B-	.	4d	.
4c	.	4e	8cc
.	.	.	8b-
4d	2r	4f	1a
4e	.	4g	.
[2f	2F	[2a	.
=117	=117	=117	=117
4f]	2A	4a]	1r
4e	.	4g	.
1d	2B-	2f	.
.	2G	1e	2r
2c	2A	.	[2a
=118	=118	=118	=118
2f	2.B-	2d	2a]
4e	.	1d	2g
4d	4B-	.	.
1e	1A	.	2a
.	.	2c	[2cc
=119	=119	=119	=119
2r	1G	1d	4cc]
.	.	.	4b-
1d	.	.	2b-
.	1A	2f	1a
2c#	.	[2e	.
=120	=120	=120	=120
2d	0r	4e]	[0a
.	.	4d	.
1f	.	1d	.
[2e	.	2c#	.
=121	=121	=121	=121
4e]	1r	2d	0a]
4d	.	.	.
1d	.	2f	.
.	2r	1e	.
2c	[2a	.	.
=122	=122	=122	=122
1B-	2a]	1d	2r
.	2g	.	1dd
1A	2f	1a	.
.	[2e	.	2cc#
=123	=123	=123	=123
2.d	4e]	0a	2dd
.	4d	.	.
.	1d	.	1ff
4e	.	.	.
4f	.	.	.
4g	.	.	.
2a	2c#	.	[2ee
=124	=124	=124	=124
2.f	1d	0a	4ee]
.	.	.	4dd
.	.	.	1dd
8e	.	.	.
8d	.	.	.
1e	1A	.	.
.	.	.	2cc#
=125	=125	=125	=125
1d	2r	2r	1dd
.	1f	1d	.
1r	.	.	[1a
.	2c	2e	.
=126	=126	=126	=126
0r	1d	1f	2a]
.	.	.	2b
.	2c	2g	1cc
.	2A	2a	.
=127	=127	=127	=127
1r	1G	1.b-	2dd
.	.	.	2ee
2r	1d	.	[1ff
[2d	.	4a	.
.	.	4g	.
=128	=128	=128	=128
2d]	2r	1.a	2ff]
2e	1A	.	4ee
.	.	.	4dd
2f	.	.	4cc
.	.	.	4a
[2g	2B-	4g	2dd
.	.	4f	.
=129	=129	=129	=129
2g]	1c	2e	2.cc
1a	.	2A	.
.	.	.	8b-
.	.	.	8a
.	2d	1r	1b-
2g	2e	.	.
=130	=130	=130	=130
0a	2.f	2r	1a
.	.	2d	.
.	8e	.	.
.	8d	.	.
.	2c#	2e	2r
.	2d	2f	2a
=131	=131	=131	=131
0r	2G	2g	2b-
.	2A	2e	2cc
.	2.B-	2d	2dd
.	.	[2g	2b-
.	4c	.	.
=132	=132	=132	=132
2r	1d	4g]	2a
.	.	4f	.
2d	.	2f	2.dd
2e	1r	2g	.
.	.	.	4cc
2f	.	[2a	2cc
=133	=133	=133	=133
2g	0r	4a]	2b-
.	.	4g	.
2e	.	1g	4a
.	.	.	4g
[1d	.	.	1a
.	.	2f	.
=134	=134	=134	=134
1d]	1G	4b-	1g
.	.	4a	.
.	.	4g	.
.	.	4f	.
2r	2A	4e	1r
.	.	4f	.
2d	2B-	[2g	.
=135	=135	=135	=135
2e	2c	2g]	0r
2f	2A	2c	.
2g	1G	2r	.
2e	.	2g	.
=136	=136	=136	=136
1d	0r	2a	2r
.	.	2b-	2dd
2c	.	2cc	2ee
2d	.	2a	2ff
=137	=137	=137	=137
2.e	0r	2g	2gg
.	.	2.cc	2ee
4f	.	.	.
1g	.	.	2dd
.	.	4b-	.
.	.	4b-	[2gg
.	.	8a	.
.	.	8g	.
=138	=138	=138	=138
1d	2r	1a	2gg]
.	2d	.	2ff
1r	2e	2g	2ee
.	2f	2a	[2dd
=139	=139	=139	=139
2r	2g	2b-	2dd]
2A	2e	2a	2cc#
2B-	2d	2r	2dd
2c	2g	2e	4cc
.	.	.	4b-
=140	=140	=140	=140
2d	2f	2f	2a
2B-	4e	2g	2dd
.	4d	.	.
1A	1e	[1a	2dd
.	.	.	2cc
=141	=141	=141	=141
1d	2d	2a]	2.ff
.	2f	2b	.
.	.	.	4dd
2c	2g	1cc	2ee
4B-	2a	.	[2ff
4A	.	.	.
=142	=142	=142	=142
1B-	1d	2.f	4ff]
.	.	.	4ee
.	.	.	1dd
.	.	4g	.
1A	1e	1a	.
.	.	.	2cc#
=143	=143	=143	=143
0G	0g	0b-	[0dd
=144	=144	=144	=144
0d	0f#	0a	0dd]
*-	*-	*-	*-
!! Et iterum
**kern	**kern	**kern	**kern	**kern
*Ibass	*Itenor	*Itenor	*Icalto	*Icant
!Bassus	!Tenor 2	!Tenor 1	!Altus	!Cantus
*clefF4	*clefGv2	*clefGv2	*clefG2	*clefG2
*k[b-]	*k[b-]	*k[b-]	*k[b-]	*k[b-]
*D:aeo	*D:aeo	*D:aeo	*D:aeo	*D:aeo
*M4/2	*M4/2	*M4/2	*M4/2	*M4/2
=145	=145	=145	=145	=145
0r	0r	0r	1d	1r
.	.	.	2.g	1g
.	.	.	4g	.
=146	=146	=146	=146	=146
0r	0r	1d	2g	2.dd
.	.	.	2f#	.
.	.	.	.	4dd
.	.	2.g	2g	2dd
.	.	.	2e-	2cc
.	.	4g	.	.
=147	=147	=147	=147	=147
0r	1r	2g	2d	2.dd
.	.	2f	2a	.
.	.	.	.	4ff
.	1G	1g	1b-	4ee-
.	.	.	.	4dd
.	.	.	.	[2dd
=148	=148	=148	=148	=148
1C	2.c	1e-	0g	2dd]
.	.	.	.	2cc
.	4c	.	.	.
2.G	2c	1d	.	1dd
.	2B	.	.	.
4G	.	.	.	.
=149	=149	=149	=149	=149
2G	2.c	2r	1a	0r
2F#	.	2.c	.	.
.	4d	.	.	.
1G	2e-	.	2r	.
.	.	8B-	.	.
.	.	8A	.	.
.	[2d	2B-	2d	.
=150	=150	=150	=150	=150
1E-	2d]	1G	2.g	1r
.	2c	.	.	.
.	.	.	4g	.
1D	1d	1A	2g	2r
.	.	.	2f#	2a
=151	=151	=151	=151	=151
0r	2r	2B-	1g	2.dd
.	2d	2G	.	.
.	.	.	.	4dd
.	2.a	1A	1e	2dd
.	.	.	.	2cc#
.	4a	.	.	.
=152	=152	=152	=152	=152
2r	2a	1d	1d	1dd
2D	2f	.	.	.
2.d	1g	1G	2r	1b-
.	.	.	2d	.
4d	.	.	.	.
=153	=153	=153	=153	=153
2d	1e	2r	2.a	2a
2c#	.	2A	.	2ee
.	.	.	4a	.
1d	1d	2.a	2a	2ff
.	.	.	2f	2dd
.	.	4a	.	.
=154	=154	=154	=154	=154
1B-	1r	2a	1d	2ff
.	.	2g	.	4ee
.	.	.	.	4dd
1A	2r	1a	1e	2cc#
.	2e	.	.	2cc#
=155	=155	=155	=155	=155
1d	2f	1a	1d	0dd
.	2d	.	.	.
2d	2f	2a	1r	.
2G	4e	4g	.	.
.	4d	4f	.	.
=156	=156	=156	=156	=156
2A	2c#	1e	2r	1r
2A	2c#	.	2a	.
[1G	[1d	1g	2b-	2r
.	.	.	2g	2dd
=157	=157	=157	=157	=157
2G]	0d]	2G	2b-	1.dd
4F	.	2G	4a	.
4E	.	.	4g	.
1D	.	2A	2f#	.
.	.	2A	2f#	2a
=158	=158	=158	=158	=158
2r	2r	2G	2g	2b-
1G	1d	1g	1b-	2dd
.	.	.	.	1dd
2D	2d	2f	2a	.
=159	=159	=159	=159	=159
1A	1c#	1e	1a	1ee
2D	1d	2.d	[1a	2ff
2d	.	.	.	2ff
.	.	4e	.	.
=160	=160	=160	=160	=160
2d	2r	1f	2a]	2ff
2d	2d	.	2b	2ff
4c	2e	1r	1cc	4ee
4B-	.	.	.	4dd
4A	2e	.	.	4cc
4G	.	.	.	4b-
=161	=161	=161	=161	=161
0F	2.f	2r	2r	2.a
.	.	2a	2cc	.
.	4g	.	.	4g
.	4a	2a	2cc	1f
.	4g	.	.	.
.	4f	2a	2cc	.
.	4e	.	.	.
=162	=162	=162	=162	=162
1G	2d	4g	4b-	1b-
.	.	4f	4a	.
.	2.e	4e	4g	.
.	.	4d	4f	.
[1A	.	2c#	2e	[1a
.	8d	.	.	.
.	8e	.	.	.
.	2f	2d	[2d	.
=163	=163	=163	=163	=163
1A]	1e	2e	2d]	1a]
.	.	2a	2c#	.
1B-	2r	2.f	1d	2r
.	[2d	.	.	2dd
.	.	8e	.	.
.	.	8d	.	.
=164	=164	=164	=164	=164
2B-	2d]	4f	2r	2dd
.	.	4e	.	.
2B-	2B-	4f	2d	2dd
.	.	4g	.	.
4A	1c	2a	2e	4cc
4G	.	.	.	4b-
4F	.	[2A	[2a	4a
4E-	.	.	.	4g
=165	=165	=165	=165	=165
0D	0d	4A]	2a]	2f#
.	.	8G	.	.
.	.	8A	.	.
.	.	2B-	1g	2g
.	.	1A	.	1a
.	.	.	2f#	.
!! Et in Spiritum
*Ibass	*Itenor	*Itenor	*Icalto	*Icant
!Bassus	!Tenor 2	!Tenor 1	!Altus	!Cantus
*clefF4	*clefGv2	*clefGv2	*clefG2	*clefG2
*k[b-]	*k[b-]	*k[b-]	*k[b-]	*k[b-]
*D:aeo	*D:aeo	*D:aeo	*D:aeo	*D:aeo
*M3/2	*M3/2	*M3/2	*M3/2	*M3/2
=166	=166	=166	=166	=166
1G	2d	2G	2g	2b
.	2G	2g	2b	2dd
2r	2G	2g	2b	2dd
=167	=167	=167	=167	=167
1r	2.c	2.g	2.cc	2.ee
.	4c	4g	4cc	4ee
2r	2c	2a	2cc	2ee
=168	=168	=168	=168	=168
1r	1d	2f	1a	1ff
.	.	2d	.	.
2r	2c#	2e	2a	2ee
=169	=169	=169	=169	=169
1r	1d	1f	1a	1dd
2r	2B-	2d	2g	2dd
=170	=170	=170	=170	=170
2r	2A	2e	2a	2cc#
2A	2e	2e	2a	2cc#
2D	2f#	2d	2a	2dd
=171	=171	=171	=171	=171
2.G	2.g	2.d	2.b-	2.dd
4G	4g	4d	4g	4b-
2F	2c	2f	2a	2cc
=172	=172	=172	=172	=172
2BB-	2f	1d	2b-	2dd
2B-	2f	.	2b-	2dd
2F	2f	2r	2a	2cc
=173	=173	=173	=173	=173
1G	1d	2r	1g	1b-
.	.	1r	.	.
2D	2d	.	2f#	2a
=174	=174	=174	=174	=174
2.C	2.e	2r	2.g	2.cc
.	.	1r	.	.
4C	4e	.	4g	4cc
2C	2e	.	2g	2cc
=175	=175	=175	=175	=175
1F	1f	2r	1a	1cc
.	.	1r	.	.
2G	2d	.	2g	2b-
=176	=176	=176	=176	=176
1A	1c#	2r	1e	1a
.	.	1r	.	.
2D	2d	.	2f	2a
=177	=177	=177	=177	=177
1r	2r	1d	1a	1ff
.	2d	.	.	.
2r	2e	2c	2a	2ee
=178	=178	=178	=178	=178
1r	2f	2B-	2b-	2dd
.	2f	2B-	2b-	2dd
2r	2f	2F	2a	2cc
=179	=179	=179	=179	=179
1r	2.d	2.G	2.g	2.b-
.	4d	4G	4g	4b-
2r	2d	2G	2g	2b-
=180	=180	=180	=180	=180
2.F	2.f	2.c	2.a	2.cc
4F	4f	4c	4a	4cc
2F	2f	2c	2a	2cc
=181	=181	=181	=181	=181
2C	2e	2c	2g	2cc
1G	2d	1B-	1g	1dd
.	2G	.	.	.
=182	=182	=182	=182	=182
2F	2c	2A	2a	2ff
2r	2r	2r	2r	2r
2D	2d	2A	2a	2ff
=183	=183	=183	=183	=183
2.D	2.f	2.d	2.a	2.ff
4D	4d	4d	4a	4ff
2A	2e	2c#	2a	2ee
=184	=184	=184	=184	=184
2D	2f	2d	2a	2dd
1A	2e	1e	1a	1cc#
.	2A	.	.	.
=185	=185	=185	=185	=185
2D	2r	2f#	2a	2dd
2D	2d	2f#	2a	2dd
2D	2d	2f#	2a	2dd
=186	=186	=186	=186	=186
1G	1B	1g	1d	1dd
2G	2B	2g	2d	2dd
=187	=187	=187	=187	=187
1C	1c	1e	1g	1cc
2F	2A	2f	2a	2cc
=188	=188	=188	=188	=188
2G	2B-	2d	2g	2b-
1D	1A	1d	1f#	1dd
!! Et unam sanctam
*Ibass	*Itenor	*Itenor	*Icalto	*Icant
!Bassus	!Tenor 2	!Tenor 1	!Altus	!Cantus
*clefF4	*clefGv2	*clefGv2	*clefG2	*clefG2
*k[b-]	*k[b-]	*k[b-]	*k[b-]	*k[b-]
*D:aeo	*D:aeo	*D:aeo	*D:aeo	*D:aeo
*M4/2	*M4/2	*M4/2	*M4/2	*M4/2
=189	=189	=189	=189	=189
2G	[0G	2B-	0g	1dd
2B-	.	2d	.	.
2B-	.	2d	.	1r
2G	.	2e-	.	.
=190	=190	=190	=190	=190
1B-	1G]	1d	0r	0r
2A	1r	2c	.	.
2G	.	2B-	.	.
=191	=191	=191	=191	=191
2G	2r	2.A	2r	0r
2F#	2d	.	2a	.
.	.	4A	.	.
[1G	2d	1G	2b-	.
.	2e-	.	2g	.
=192	=192	=192	=192	=192
1G]	2.d	1g	2.b-	1r
.	4d	.	4b-	.
1r	[1d	2r	1a	1ff
.	.	2a	.	.
=193	=193	=193	=193	=193
0r	2d]	2a	1f	2ff
.	4B-	2b-	.	2dd
.	4c	.	.	.
.	4d	2.a	4f	2.ff
.	4e	.	4g	.
.	2f	.	4a	.
.	.	4a	4b-	4ff
=194	=194	=194	=194	=194
0r	2c	2g	2cc	2ee
.	2d	2f	2a	2dd
.	1A	2e	2.a	2dd
.	.	2e	.	2cc#
.	.	.	4g	.
=195	=195	=195	=195	=195
2r	2.B-	1d	2f	2.dd
2G	.	.	2g	.
.	4A	.	.	4cc
2.G	4B-	1g	1d	1b-
.	4c	.	.	.
.	4d	.	.	.
4G	4B-	.	.	.
=196	=196	=196	=196	=196
2A	2c	2e	2r	1a
2F	1d	2f	2a	.
2G	.	1e	2b-	1r
2A	2c#	.	2a	.
=197	=197	=197	=197	=197
2.B-	0d	2r	1f	2r
.	.	2d	.	2dd
4A	.	.	.	.
1G	.	2.B	2r	2.dd
.	.	.	2g	.
.	.	4B	.	4dd
=198	=198	=198	=198	=198
1C	0r	1c	2.g	1ee
.	.	.	4g	.
1r	.	2A	2a	2cc
.	.	2d	2f	2dd
=199	=199	=199	=199	=199
0r	1r	2c	2g	2ee
.	.	2f	2a	2.ff
.	2r	4B-	1b-	.
.	.	4c	.	4ee
.	2d	4d	.	4dd
.	.	4e	.	4cc
=200	=200	=200	=200	=200
0r	2.d	1f	2.a	1dd
.	4d	.	8g	.
.	.	.	8f	.
.	2e	1r	2g	2.cc
.	2c	.	[2a	.
.	.	.	.	8b-
.	.	.	.	8a
=201	=201	=201	=201	=201
1r	2d	1r	2a]	1b-
.	2e	.	2g	.
[1D	1f	2r	[1a	1a
.	.	[2d	.	.
=202	=202	=202	=202	=202
2D]	2.f	2d]	1a]	2r
2D	.	2d	.	1a
.	8e	.	.	.
.	8d	.	.	.
2A	4c	2e	1r	.
.	4d	.	.	.
2A	4e	2c	.	2a
.	4f	.	.	.
=203	=203	=203	=203	=203
1G	1g	2d	1r	2b-
.	.	2e	.	2g
1D	1r	2f	2r	2a
.	.	2f	[2d	2a
=204	=204	=204	=204	=204
1.G	0r	1.g	2d]	2b-
.	.	.	2d	1b-
.	.	.	2e	.
2A	.	2e	2c	[2a
=205	=205	=205	=205	=205
2B-	2r	1r	2d	4a]
.	.	.	.	4g
2c	2c	.	2e	2g
2F	2c	2r	2f	2a
[2F	[2f	[2a	2f	2cc
=206	=206	=206	=206	=206
2F]	4f]	2a]	2c	2cc
.	4e	.	.	.
2F	4d	2a	2A	2.ff
.	4c	.	.	.
[1B-	[1d	2.f	2r	.
.	.	.	.	4ee
.	.	.	[2f	4dd
.	.	4e	.	4cc
=207	=207	=207	=207	=207
1B-]	2d]	4d	2f]	1dd
.	.	4c	.	.
.	2G	2d	2g	.
1A	2r	1e	2a	1cc
.	[2c	.	2a	.
=208	=208	=208	=208	=208
2.F	4c]	2.f	2.a	2.cc
.	4c	.	.	.
.	2c	.	.	.
4F	.	4f	4a	4cc
2F	2A	2c	2a	2cc
2F	[2A	2c	2a	2cc
=209	=209	=209	=209	=209
1D	2A]	1d	1f	1.ff
.	2F	.	.	.
1C	2c	[1G	1g	.
.	2c	.	.	2ee
=210	=210	=210	=210	=210
1.G	1B-	1G]	1.b-	4dd
.	.	.	.	4cc
.	.	.	.	4b-
.	.	.	.	4a
.	1d	2r	.	2g
2F#	.	2d	2a	2a
=211	=211	=211	=211	=211
0G	2r	2d	1g	0b-
.	2d	1B-	.	.
.	1g	.	1d	.
.	.	4A	.	.
.	.	4G	.	.
=212	=212	=212	=212	=212
1D	2g	2.d	1r	2a
.	2f#	.	.	2a
.	.	4c	.	.
1r	2g	4B-	2r	1dd
.	.	4A	.	.
.	2g	2G	2d	.
=213	=213	=213	=213	=213
1r	2e	0A	1a	2dd
.	2e	.	.	2cc#
1D	1d	.	2a	2dd
.	.	.	2f	2dd
=214	=214	=214	=214	=214
1d	1G	1r	2g	2b-
.	.	.	2g	2b-
2d	1A	2r	2e	2a
2c#	.	2e	2e	2ee
=215	=215	=215	=215	=215
2d	1r	1a	0d	2ff
2d	.	.	.	2dd
2B-	2r	2a	.	2ff
2B-	2d	2g	.	4ee
.	.	.	.	4dd
=216	=216	=216	=216	=216
1A	2e	2a	2r	4cc#
.	.	.	.	4dd
.	2c#	2a	2e	2.ee
1r	2d	2f	2a	.
.	.	.	.	4dd
.	2d	2f	2a	[2dd
=217	=217	=217	=217	=217
1r	1A	1e	2.a	2dd]
.	.	.	.	2cc#
.	.	.	4a	.
[1d	2r	2.f	1a	2dd
.	4d	.	.	[2ff
.	4e	4g	.	.
=218	=218	=218	=218	=218
2d]	4f	1a	2d	2ff]
.	4g	.	.	.
2c	2a	.	2e	2ee
2B-	4d	1r	1f	2dd
.	4e	.	.	.
2A	4f	.	.	2cc
.	8e	.	.	.
.	8d	.	.	.
=219	=219	=219	=219	=219
1G	4e	1r	1g	1b-
.	4d	.	.	.
.	1d	.	.	.
1A	.	2r	1e	2.a
.	2c#	[2a	.	.
.	.	.	.	4g
=220	=220	=220	=220	=220
0D	1.a	2a]	1.d	2f
.	.	2g	.	2e
.	.	2f	.	1d
.	2g	2e	2e	.
=221	=221	=221	=221	=221
1.d	2f	2d	2f	1.ff
.	2e	2e	2g	.
.	2d	4f	1a	.
.	.	4g	.	.
2c	2e	2a	.	2ee
=222	=222	=222	=222	=222
2B-	1f	4d	0r	2dd
.	.	4e	.	.
2A	.	4f	.	2cc
.	.	8e	.	.
.	.	8d	.	.
1G	2.g	2e	.	1b-
.	.	[2d	.	.
.	4f	.	.	.
=223	=223	=223	=223	=223
1A	1e	2d]	2r	1a
.	.	2c#	1a	.
1D	[1a	1d	.	[1ff
.	.	.	2g	.
=224	=224	=224	=224	=224
1.d	1a]	2r	1f	2ff]
.	.	2a	.	4ee
.	.	.	.	4dd
.	1r	2f	2d	2ff
2c	.	[2g	2e	[2ee
=225	=225	=225	=225	=225
1B-	1r	4g]	2f	4ee]
.	.	4f	.	4dd
.	.	2d	2g	1dd
1A	2r	1e	1a	.
.	[2a	.	.	2cc#
=226	=226	=226	=226	=226
2.D	4a]	[0d	2f	[0dd
.	4g	.	.	.
.	4f	.	1a	.
4E	4e	.	.	.
2F	4d	.	.	.
.	4c	.	.	.
[2G	4B-	.	2g	.
.	4A	.	.	.
=227	=227	=227	=227	=227
2G]	2G	1d_	2b-	1dd_
2F#	2A	.	2a	.
1G	1B-	1d_	1g	1dd_
=228	=228	=228	=228	=228
0D	0A	0d]	0f#	0dd]
==	==	==	==	==
*-	*-	*-	*-	*-
!!!CDT: 1525/^1526/-1594/2/2
!!!OCY: Italia
!!!AGN: Mass (Parody)
!!!AST: renaissance, vocal
!!!ASW: Motet 1532 (Lhéritier)
!!!PWK: Masses, Book 5
!!!RNB: Cadence finals: G,A
!!!YOR: Le Opere Complete, v. 15, p. 89
!!!YOO: Rome, Italy: Fratelli Scalera
!!!END: 1992//
!!!EED: John Miller
!!!YEC: Copyright 2000, John Miller
!!!YEN: United States of America
!!!YEM: Rights to all derivative electronic formats reserved.
!!!YEM: Refer to licensing agreement for further details.
!!!YEM: This file must be accompanied by the licensing agreement.
!!!YEM: A copy of the licensing agreement may be found at http://www.music-cog.ohio-state.edu/HumdrumDatabases/Palestrina/license.txt
!!!EMD: converted to Humdrum by Bret Aarden
